!!!SOCIAL_FUNCTION:	songs received from animals
!!!PDT:	1918

Specific Region: Dakotas, Minnesota, Montana, Nebraska
!!!REG: Dakotas and Montana
!!!LING_GROUP: Siouan
!!!LANG: Tone
!!!OTL@ENG: A Bear Said This
!!!ONM: No. 57
**kern
*Imale
*clefF4
*k[b-]
*M3/4
*MM88
4g
4g
8.g
16f
=2
2.f
=3
4f
4f
8.f
16d
=4
2.d
=5||
*M2/4
4f
4f
=6
12g
12f
12d
16d
16c
16G
16G
=7
8.d
16d
4c
=8
12d
12c
12G
16A
16G
16F
16F
=9||
*M3/4
8.G
16G
4G
12A
12G
12F
=10
2.F
=11
4F
4F
8.F
16D
=12
2.D
=13
8.G
16G
4G
12A
12G
12F
=14
2.F
=15
4F
4F
8.G
16F
=16
2.F
=17||
*M2/4
4..F
16g
=18
8.f
16f
4f
=19||
*M3/4
12g
12f
12d
(8d
8c
8.A)
16d
=20||
*M2/4
8.d
16d
4c
=21||
*M3/4
(12d
12c)
12A
(8A
8G
8.F)
16G
=22
8.G
16G
4G
(8A
8G)
=23
16F
8.F
16F
8.F
4F
=24
16F
8.F
4F
4F
=25
16D
[8.D
2D]
=26
8.G
16G
4G
8A
8G
=27
16F
8.F
[2F
=28
8.F]
16F
4F
8G
8F
=29
2.F
=30
4F
2r
==
*-
!!!CNT: Native American -- Sioux
!!!MRD: 1911/07//-1914///
!!!OCL: Frances Densmore
!!!YOR1: Teton Sioux Music, Bulletin 61,
!!!YOR2: Bureau of American Ethnology, Smithsonian Institution
!!!PPR: Government Printing Office
!!!PPP: Washington, D.C.
!!!PDT: 1918///
!!!ENC: Craig Stuart Sapp
!!!END: 2002/03/25/
!!!EEV: 2002/03/31/
!!!AGN: Song of Personal Dreams/Song Received from Animals
!!!MPN@@SIO: Oku'te
!!!MPN@ENG: Shooter
!!!TXO: Teton Sioux
!!!MLC: Standing Rock Reservation, South Dakota, United States of America
!!!ARL: 45.9/-100.7#
!!!catalog: Catalogue No. 581
!!!PPG: 196
!!!EFL: 57/245
!!!VTS: 4223652379
